; generated by PrusaSlicer 2.4.0+arm64 on 2022-03-23 at 14:18:06 UTC

; 

; external perimeters extrusion width = 0.45mm
; perimeters extrusion width = 0.45mm
; infill extrusion width = 0.45mm
; solid infill extrusion width = 0.45mm
; top infill extrusion width = 0.40mm
; first layer extrusion width = 0.42mm

M73 P0 R101
M73 Q0 S103
M201 X1000 Y1000 Z200 E5000 ; sets maximum accelerations, mm/sec^2
M203 X200 Y200 Z12 E120 ; sets maximum feedrates, mm/sec
M204 P1250 R1250 T1250 ; sets acceleration (P, T) and retract acceleration (R), mm/sec^2
M205 X8.00 Y8.00 Z0.40 E4.50 ; sets the jerk limits, mm/sec
M205 S0 T0 ; sets the minimum extruding and travel feed rate, mm/sec
M107
;TYPE:Custom
M862.3 P "MK3S" ; printer model check
M862.1 P0.4 ; nozzle diameter check
M115 U3.10.0 ; tell printer latest fw version
G90 ; use absolute coordinates
M83 ; extruder relative mode
M104 S215 ; set extruder temp
M140 S60 ; set bed temp
M190 S60 ; wait for bed temp
M109 S215 ; wait for extruder temp
G28 W ; home all without mesh bed level
G80 ; mesh bed leveling
G1 Z0.2 F720
G1 Y-3 F1000 ; go outside print area
G92 E0
G1 X60 E9 F1000 ; intro line
G1 X100 E12.5 F1000 ; intro line
G92 E0
M221 S95

; Don't change E values below. Excessive value can damage the printer.
M907 E430 ; set extruder motor current
G21 ; set units to millimeters
G90 ; use absolute coordinates
M83 ; use relative distances for extrusion
M900 K0.05 ; Filament gcode LA 1.5
M900 K30 ; Filament gcode LA 1.0
M107
;LAYER_CHANGE
;Z:0.2
;HEIGHT:0.2
;BEFORE_LAYER_CHANGE
G92 E0.0
;0.2


G1 E-.8 F2100
G1 Z.4 F720
;AFTER_LAYER_CHANGE
;0.2
G1 X72.637 Y86.955 F10800
G1 Z.2 F720
G1 E.8 F2100
M204 S800
;TYPE:Skirt/Brim
;WIDTH:0.42
G1 F1200
G1 X73.859 Y86.385 E.04228
G1 X74.767 Y86.178 E.02922
G1 X75.497 Y86.123 E.02296
G1 X174.707 Y86.132 E3.11065
G1 X176.126 Y86.381 E.04518
G1 X176.993 Y86.742 E.02945
G1 X177.782 Y87.247 E.02936
G1 X178.475 Y87.887 E.02958
G1 X179.044 Y88.634 E.02945
G1 X179.473 Y89.468 E.02938
G1 X179.75 Y90.361 E.02934
G1 X179.877 Y91.497 E.03584
G1 X179.877 Y118.5 E.84665
G1 X179.823 Y119.217 E.02255
G1 X179.619 Y120.126 E.02921
G1 X179.258 Y120.993 E.02945
G1 X178.487 Y122.1 E.04228
G1 X177.372 Y123.039 E.0457
G1 X176.141 Y123.615 E.04262
G1 X175.233 Y123.822 E.02922
G1 X174.503 Y123.877 E.02296
G1 X75.5 Y123.877 E3.10415
G1 X74.783 Y123.823 E.02255
G1 X73.874 Y123.619 E.02921
G1 X73.007 Y123.258 E.02945
G1 X72.218 Y122.753 E.02936
G1 X71.533 Y122.121 E.02924
G1 X70.966 Y121.379 E.02926
G1 X70.385 Y120.141 E.04288
G1 X70.178 Y119.233 E.02922
G1 X70.123 Y118.503 E.02296
G1 X70.123 Y91.5 E.84665
G1 X70.177 Y90.783 E.02255
G1 X70.381 Y89.874 E.02921
G1 X70.742 Y89.007 E.02945
G1 X71.513 Y87.9 E.04228
G1 X72.591 Y86.993 E.04416
M204 S1000
; printing object PocketPCR_Case.STL id:0 copy 0
;WIPE_START
G1 F8640
G1 X73.859 Y86.385 E-.32476
G1 X74.767 Y86.178 E-.21517
G1 X75.497 Y86.123 E-.16905
G1 X75.718 Y86.123 E-.05101
;WIPE_END
G1 E-.04 F2100
G1 Z.6 F720
G1 X79.085 Y114.646 F10800
G1 Z.2 F720
M73 Q0 S102
G1 E.8 F2100
M204 S800
;TYPE:Perimeter
G1 F1200
G1 X79.417 Y114.617 E.01046
G1 X79.906 Y114.644 E.01533
G1 X80.317 Y114.754 E.01337
G1 X80.695 Y114.93 E.01306
G1 X81.036 Y115.169 E.01306
G1 X81.331 Y115.464 E.01306
G1 X81.522 Y115.737 E.01046
G1 X81.743 Y116.173 E.01533
G1 X81.854 Y116.585 E.01337
G1 X81.89 Y117 E.01306
G1 X81.854 Y117.415 E.01306
G1 X81.746 Y117.817 E.01306
G1 X81.57 Y118.195 E.01306
G1 X81.331 Y118.536 E.01306
G1 X81.036 Y118.831 E.01306
G1 X80.695 Y119.07 E.01306
G1 X80.317 Y119.246 E.01306
G1 X79.915 Y119.354 E.01306
G1 X79.5 Y119.39 E.01306
G1 X79.085 Y119.354 E.01306
G1 X78.683 Y119.246 E.01306
G1 X78.305 Y119.07 E.01306
G1 X77.964 Y118.831 E.01306
G1 X77.728 Y118.595 E.01046
G1 X77.434 Y118.204 E.01533
G1 X77.254 Y117.817 E.01337
G1 X77.146 Y117.415 E.01306
G1 X77.11 Y117 E.01306
G1 X77.146 Y116.585 E.01306
G1 X77.254 Y116.183 E.01306
G1 X77.43 Y115.805 E.01306
G1 X77.669 Y115.464 E.01306
G1 X77.964 Y115.169 E.01306
G1 X78.305 Y114.93 E.01306
G1 X78.683 Y114.754 E.01306
G1 X79.027 Y114.662 E.01118
M204 S1000
G1 X79.151 Y115.019 F10800
M204 S800
;TYPE:External perimeter
G1 F1200
G1 X79.424 Y114.995 E.00859
G1 X79.846 Y115.018 E.01326
G1 X80.188 Y115.11 E.0111
G1 X80.506 Y115.258 E.01099
G1 X80.793 Y115.459 E.01099
G1 X81.041 Y115.707 E.01099
G1 X81.198 Y115.931 E.00859
G1 X81.389 Y116.309 E.01326
G1 X81.481 Y116.651 E.0111
G1 X81.512 Y117 E.01099
G1 X81.481 Y117.349 E.01099
G1 X81.39 Y117.688 E.01099
G1 X81.242 Y118.006 E.01099
G1 X81.041 Y118.293 E.01099
G1 X80.793 Y118.541 E.01099
G1 X80.506 Y118.742 E.01099
G1 X80.188 Y118.89 E.01099
G1 X79.849 Y118.981 E.01099
G1 X79.5 Y119.012 E.01099
G1 X79.151 Y118.981 E.01099
G1 X78.812 Y118.89 E.01099
G1 X78.494 Y118.742 E.01099
G1 X78.207 Y118.541 E.01099
G1 X78.013 Y118.347 E.00859
G1 X77.759 Y118.009 E.01326
G1 X77.61 Y117.688 E.0111
G1 X77.519 Y117.349 E.01099
G1 X77.488 Y117 E.01099
G1 X77.519 Y116.651 E.01099
G1 X77.61 Y116.312 E.01099
G1 X77.758 Y115.994 E.01099
G1 X77.959 Y115.707 E.01099
G1 X78.207 Y115.459 E.01099
G1 X78.494 Y115.258 E.01099
G1 X78.812 Y115.11 E.01099
G1 X79.093 Y115.035 E.00911
M204 S1000
G1 X79.244 Y114.762 F10800
;WIPE_START
G1 F8640
G1 X79.424 Y114.995 E-.07692
G1 X79.846 Y115.018 E-.09768
G1 X80.188 Y115.11 E-.08177
G1 X80.506 Y115.258 E-.08097
G1 X80.793 Y115.459 E-.08096
G1 X81.041 Y115.707 E-.08096
G1 X81.198 Y115.931 E-.06324
G1 X81.389 Y116.309 E-.09768
G1 X81.481 Y116.651 E-.08177
G1 X81.488 Y116.729 E-.01805
;WIPE_END
G1 E-.04 F2100
G1 Z.6 F720
G1 X79.134 Y95.358 F10800
G1 Z.2 F720
G1 E.8 F2100
M204 S800
;TYPE:Perimeter
G1 F1200
G1 X78.683 Y95.246 E.0146
G1 X78.305 Y95.07 E.01306
G1 X77.964 Y94.831 E.01306
G1 X77.728 Y94.595 E.01046
G1 X77.434 Y94.204 E.01533
G1 X77.254 Y93.817 E.01337
G1 X77.146 Y93.415 E.01306
G1 X77.11 Y93 E.01306
G1 X77.146 Y92.585 E.01306
G1 X77.254 Y92.183 E.01306
G1 X77.43 Y91.805 E.01306
G1 X77.669 Y91.464 E.01306
G1 X77.964 Y91.169 E.01306
G1 X78.305 Y90.93 E.01306
G1 X78.683 Y90.754 E.01306
G1 X79.085 Y90.646 E.01306
G1 X79.417 Y90.617 E.01046
G1 X79.906 Y90.644 E.01533
G1 X80.317 Y90.754 E.01337
G1 X80.695 Y90.93 E.01306
G1 X81.036 Y91.169 E.01306
G1 X81.331 Y91.464 E.01306
G1 X81.57 Y91.805 E.01306
G1 X81.746 Y92.183 E.01306
G1 X81.854 Y92.585 E.01306
G1 X81.89 Y93 E.01306
G1 X81.854 Y93.415 E.01306
G1 X81.746 Y93.817 E.01306
G1 X81.57 Y94.195 E.01306
G1 X81.331 Y94.536 E.01306
G1 X81.036 Y94.831 E.01306
G1 X80.695 Y95.07 E.01306
G1 X80.317 Y95.246 E.01306
G1 X79.915 Y95.354 E.01306
G1 X79.5 Y95.39 E.01306
G1 X79.194 Y95.363 E.00963
M204 S1000
G1 X79.5 Y95.012 F10800
M204 S800
;TYPE:External perimeter
G1 F1200
G1 X79.151 Y94.981 E.01099
G1 X78.812 Y94.89 E.01099
G1 X78.494 Y94.742 E.01099
G1 X78.207 Y94.541 E.01099
G1 X78.013 Y94.347 E.00859
G1 X77.759 Y94.009 E.01326
G1 X77.61 Y93.688 E.0111
G1 X77.519 Y93.349 E.01099
G1 X77.488 Y93 E.01099
G1 X77.519 Y92.651 E.01099
G1 X77.61 Y92.312 E.01099
G1 X77.758 Y91.994 E.01099
G1 X77.959 Y91.707 E.01099
G1 X78.207 Y91.459 E.01099
G1 X78.494 Y91.258 E.01099
G1 X78.812 Y91.11 E.01099
G1 X79.151 Y91.019 E.01099
G1 X79.424 Y90.995 E.00859
G1 X79.846 Y91.018 E.01326
G1 X80.188 Y91.11 E.0111
G1 X80.506 Y91.258 E.01099
G1 X80.793 Y91.459 E.01099
G1 X81.041 Y91.707 E.01099
G1 X81.242 Y91.994 E.01099
G1 X81.39 Y92.312 E.01099
G1 X81.481 Y92.651 E.01099
G1 X81.512 Y93 E.01099
G1 X81.481 Y93.349 E.01099
G1 X81.39 Y93.688 E.01099
G1 X81.242 Y94.006 E.01099
G1 X81.041 Y94.293 E.01099
G1 X80.793 Y94.541 E.01099
G1 X80.506 Y94.742 E.01099
G1 X80.188 Y94.89 E.01099
G1 X79.849 Y94.981 E.01099
G1 X79.56 Y95.006 E.00911
M204 S1000
G1 X79.325 Y95.315 F10800
;WIPE_START
G1 F8640
G1 X79.151 Y94.981 E-.09464
G1 X78.812 Y94.89 E-.08096
G1 X78.494 Y94.742 E-.08096
G1 X78.207 Y94.541 E-.08096
G1 X78.013 Y94.347 E-.06324
G1 X77.759 Y94.009 E-.09768
G1 X77.61 Y93.688 E-.08177
G1 X77.519 Y93.349 E-.08096
G1 X77.488 Y93 E-.08096
G1 X77.495 Y92.923 E-.01786
;WIPE_END
G1 E-.04 F2100
G1 Z.6 F720
G1 X84.713 Y89.687 F10800
G1 Z.2 F720
G1 E.8 F2100
M204 S800
;TYPE:Perimeter
G1 F1200
G1 X84.713 Y120.713 E.97279
G1 X75.534 Y120.713 E.28779
G1 X75.116 Y120.676 E.01316
G1 X74.744 Y120.577 E.01208
G1 X74.395 Y120.414 E.01208
G1 X74.079 Y120.193 E.01208
G1 X73.807 Y119.921 E.01208
G1 X73.586 Y119.605 E.01208
G1 X73.423 Y119.256 E.01208
G1 X73.324 Y118.884 E.01208
G1 X73.287 Y118.466 E.01316
G1 X73.287 Y91.534 E.84441
G1 X73.324 Y91.116 E.01316
G1 X73.423 Y90.744 E.01208
G1 X73.586 Y90.395 E.01208
G1 X73.807 Y90.079 E.01208
G1 X74.079 Y89.807 E.01208
G1 X74.395 Y89.586 E.01208
G1 X74.744 Y89.423 E.01208
G1 X75.116 Y89.324 E.01208
G1 X75.534 Y89.287 E.01316
G1 X84.713 Y89.287 E.28779
G1 X84.713 Y89.627 E.01066
M204 S1000
G1 X85.09 Y88.91 F10800
M204 S800
;TYPE:External perimeter
G1 F1200
G1 X85.09 Y121.09 E1.00898
G1 X75.518 Y121.09 E.30013
G1 X75.051 Y121.049 E.01471
G1 X74.615 Y120.932 E.01415
G1 X74.206 Y120.742 E.01415
G1 X73.836 Y120.483 E.01415
G1 X73.517 Y120.164 E.01415
G1 X73.258 Y119.794 E.01415
G1 X73.068 Y119.385 E.01415
G1 X72.951 Y118.949 E.01415
G1 X72.91 Y118.482 E.01471
G1 X72.91 Y91.518 E.84544
G1 X72.951 Y91.051 E.01471
G1 X73.068 Y90.615 E.01415
G1 X73.258 Y90.206 E.01415
G1 X73.517 Y89.836 E.01415
G1 X73.836 Y89.517 E.01415
G1 X74.206 Y89.258 E.01415
G1 X74.615 Y89.068 E.01415
G1 X75.051 Y88.951 E.01415
G1 X75.518 Y88.91 E.01471
G1 X85.03 Y88.91 E.29825
M204 S1000
G1 X84.89 Y89.257 F10800
;WIPE_START
G1 F8640
G1 X85.036 Y92.201 E-.76
;WIPE_END
G1 E-.04 F2100
G1 Z.6 F720
G1 X84.6 Y90.165 F10800
G1 Z.2 F720
G1 E.8 F2100
M204 S800
;TYPE:Solid infill
;WIDTH:0.421428
G1 F1200
G1 X84.004 Y89.57 E.02651
G1 X83.469 Y89.57 E.01685
G1 X84.43 Y90.531 E.04278
G1 X84.43 Y91.066 E.01685
G1 X82.934 Y89.57 E.06661
G1 X82.398 Y89.57 E.01685
G1 X84.43 Y91.602 E.09043
G1 X84.43 Y92.137 E.01685
G1 X81.863 Y89.57 E.11426
G1 X81.328 Y89.57 E.01685
G1 X84.43 Y92.672 E.13809
G1 X84.43 Y93.208 E.01685
G1 X80.792 Y89.57 E.16191
G1 X80.257 Y89.57 E.01685
G1 X84.43 Y93.743 E.18574
G1 X84.43 Y94.278 E.01685
G1 X79.722 Y89.57 E.20956
G1 X79.187 Y89.57 E.01685
G1 X79.99 Y90.374 E.03578
G1 X79.415 Y90.334 E.01814
G1 X78.651 Y89.57 E.034
G1 X78.116 Y89.57 E.01685
G1 X78.939 Y90.393 E.03662
G1 X78.526 Y90.515 E.01355
G1 X77.581 Y89.57 E.04207
G1 X77.045 Y89.57 E.01685
G1 X78.161 Y90.686 E.04966
G1 X77.846 Y90.906 E.0121
G1 X76.51 Y89.57 E.05947
G1 X75.975 Y89.57 E.01685
G1 X77.569 Y91.164 E.07095
G1 X77.452 Y91.281 E.00522
G1 X77.328 Y91.458 E.0068
G1 X75.448 Y89.578 E.08366
G1 X75.166 Y89.603 E.00893
G1 X74.986 Y89.651 E.00586
G1 X77.125 Y91.79 E.09521
G1 X76.966 Y92.166 E.01285
G1 X74.601 Y89.802 E.10524
G1 X74.277 Y90.014 E.01217
G1 X76.861 Y92.597 E.115
G1 X76.826 Y93 E.01272
G1 X76.835 Y93.107 E.00338
G1 X73.889 Y90.16 E.13116
M204 S1000
;WIPE_START
G1 F8640
G1 X76.216 Y92.488 E-.76
;WIPE_END
G1 E-.04 F2100
G1 Z.6 F720
G1 X84.6 Y94.983 F10800
G1 Z.2 F720
G1 E.8 F2100
M204 S800
G1 F1200
G1 X82.126 Y92.51 E.11009
G1 X82.174 Y93 E.01551
G1 X82.167 Y93.085 E.00269
G1 X84.43 Y95.349 E.10075
G1 X84.43 Y95.884 E.01685
G1 X82.107 Y93.561 E.10339
G1 X81.985 Y93.974 E.01355
G1 X84.43 Y96.419 E.10883
G1 X84.43 Y96.955 E.01685
G1 X81.814 Y94.339 E.11643
G1 X81.594 Y94.654 E.0121
G1 X84.43 Y97.49 E.12624
G1 X84.43 Y98.025 E.01685
G1 X81.336 Y94.931 E.13772
G1 X81.219 Y95.048 E.00522
G1 X81.042 Y95.172 E.0068
G1 X84.43 Y98.56 E.15081
G1 X84.43 Y99.096 E.01685
G1 X80.71 Y95.375 E.1656
G1 X80.334 Y95.534 E.01285
G1 X84.43 Y99.631 E.18234
G1 X84.43 Y100.166 E.01685
G1 X79.903 Y95.639 E.20152
G1 X79.5 Y95.674 E.01272
G1 X79.393 Y95.665 E.00338
G1 X84.43 Y100.702 E.2242
G1 X84.43 Y101.237 E.01685
G1 X78.75 Y95.557 E.25282
G1 X78.585 Y95.513 E.00536
G1 X78.163 Y95.316 E.01467
G1 X77.781 Y95.048 E.01467
G1 X77.514 Y94.781 E.01191
G1 X77.19 Y94.35 E.01695
G1 X76.987 Y93.915 E.01512
G1 X76.943 Y93.75 E.00536
G1 X73.8 Y90.606 E.13992
G1 X73.69 Y90.841 E.00816
G1 X73.65 Y90.992 E.00491
G1 X84.43 Y101.772 E.47983
G1 X84.43 Y102.307 E.01685
G1 X73.578 Y91.455 E.48303
G1 X73.57 Y91.983 E.0166
G1 X84.43 Y102.843 E.48339
G1 X84.43 Y103.378 E.01685
G1 X73.57 Y92.518 E.48339
G1 X73.57 Y93.053 E.01685
G1 X84.43 Y103.913 E.48339
G1 X84.43 Y104.449 E.01685
G1 X73.57 Y93.588 E.48339
G1 X73.57 Y94.124 E.01685
G1 X84.43 Y104.984 E.48339
G1 X84.43 Y105.519 E.01685
G1 X73.57 Y94.659 E.48339
G1 X73.57 Y95.194 E.01685
G1 X84.43 Y106.055 E.48339
G1 X84.43 Y106.59 E.01685
G1 X73.57 Y95.73 E.48339
G1 X73.57 Y96.265 E.01685
G1 X84.43 Y107.125 E.48339
G1 X84.43 Y107.66 E.01685
G1 X73.57 Y96.8 E.48339
G1 X73.57 Y97.335 E.01685
G1 X84.43 Y108.196 E.48339
G1 X84.43 Y108.731 E.01685
G1 X73.57 Y97.871 E.48339
G1 X73.57 Y98.406 E.01685
G1 X84.43 Y109.266 E.48339
G1 X84.43 Y109.802 E.01685
G1 X73.57 Y98.941 E.48339
G1 X73.57 Y99.477 E.01685
G1 X84.43 Y110.337 E.48339
G1 X84.43 Y110.872 E.01685
G1 X73.57 Y100.012 E.48339
G1 X73.57 Y100.547 E.01685
G1 X84.43 Y111.407 E.48339
G1 X84.43 Y111.943 E.01685
G1 X73.57 Y101.082 E.48339
G1 X73.57 Y101.618 E.01685
G1 X84.43 Y112.478 E.48339
G1 X84.43 Y113.013 E.01685
M73 P0 R100
G1 X73.57 Y102.153 E.48339
G1 X73.57 Y102.688 E.01685
G1 X84.43 Y113.549 E.48339
G1 X84.43 Y114.084 E.01685
M73 P1 R100
M73 Q1 S102
G1 X73.57 Y103.224 E.48339
G1 X73.57 Y103.759 E.01685
G1 X84.43 Y114.619 E.48339
G1 X84.43 Y115.154 E.01685
G1 X73.57 Y104.294 E.48339
G1 X73.57 Y104.83 E.01685
G1 X84.43 Y115.69 E.48339
G1 X84.43 Y116.225 E.01685
G1 X73.57 Y105.365 E.48339
G1 X73.57 Y105.9 E.01685
G1 X84.43 Y116.76 E.48339
G1 X84.43 Y117.296 E.01685
G1 X73.57 Y106.435 E.48339
G1 X73.57 Y106.971 E.01685
G1 X84.43 Y117.831 E.48339
G1 X84.43 Y118.366 E.01685
G1 X73.57 Y107.506 E.48339
G1 X73.57 Y108.041 E.01685
G1 X79.888 Y114.36 E.28122
G1 X79.334 Y114.341 E.01745
G1 X73.57 Y108.577 E.25656
G1 X73.57 Y109.112 E.01685
G1 X78.869 Y114.411 E.23588
G1 X78.585 Y114.487 E.00925
G1 X78.466 Y114.543 E.00415
G1 X73.57 Y109.647 E.21792
G1 X73.57 Y110.182 E.01685
G1 X78.109 Y114.722 E.20205
G1 X77.794 Y114.942 E.0121
G1 X73.57 Y110.718 E.18804
G1 X73.57 Y111.253 E.01685
G1 X77.525 Y115.208 E.17604
G1 X77.452 Y115.281 E.00326
G1 X77.291 Y115.51 E.00879
G1 X73.57 Y111.788 E.16565
G1 X73.57 Y112.324 E.01685
G1 X77.097 Y115.851 E.15698
G1 X76.987 Y116.085 E.00816
G1 X76.947 Y116.236 E.0049
G1 X73.57 Y112.859 E.15031
G1 X73.57 Y113.394 E.01685
G1 X76.854 Y116.678 E.14618
G1 X76.826 Y117 E.01016
G1 X76.844 Y117.203 E.00643
G1 X73.4 Y113.76 E.15328
M204 S1000
;WIPE_START
G1 F8640
G1 X75.728 Y116.087 E-.76
;WIPE_END
G1 E-.04 F2100
G1 Z.6 F720
G1 X81.919 Y116.39 F10800
G1 Z.2 F720
G1 E.8 F2100
M204 S800
G1 F1200
G1 X84.43 Y118.902 E.11179
G1 X84.43 Y119.437 E.01685
G1 X82.159 Y117.166 E.10107
G1 X82.133 Y117.464 E.00942
G1 X82.089 Y117.631 E.00542
G1 X84.43 Y119.972 E.10421
G1 X84.43 Y120.43 E.01442
G1 X84.353 Y120.43 E.00243
G1 X81.957 Y118.034 E.10664
G1 X81.778 Y118.391 E.01255
G1 X83.818 Y120.43 E.09078
G1 X83.282 Y120.43 E.01685
G1 X81.558 Y118.706 E.07676
G1 X81.292 Y118.975 E.01191
G1 X82.747 Y120.43 E.06476
G1 X82.212 Y120.43 E.01685
G1 X80.99 Y119.209 E.05437
G1 X80.837 Y119.316 E.00588
G1 X80.649 Y119.403 E.00651
G1 X81.676 Y120.43 E.04571
G1 X81.141 Y120.43 E.01685
G1 X80.264 Y119.553 E.03904
G1 X79.964 Y119.633 E.00976
G1 X79.822 Y119.646 E.00451
G1 X80.606 Y120.43 E.03491
G1 X80.071 Y120.43 E.01685
G1 X79.11 Y119.469 E.04276
M204 S1000
;WIPE_START
G1 F8640
G1 X80.071 Y120.43 E-.31369
G1 X80.606 Y120.43 E-.1236
G1 X79.822 Y119.646 E-.25611
G1 X79.964 Y119.633 E-.0331
G1 X80.104 Y119.596 E-.03349
;WIPE_END
G1 E-.04 F2100
G1 Z.6 F720
G1 X79.705 Y120.6 F10800
G1 Z.2 F720
G1 E.8 F2100
M204 S800
G1 F1200
G1 X78.63 Y119.525 E.04786
G1 X78.163 Y119.316 E.01609
G1 X77.781 Y119.048 E.01467
G1 X77.514 Y118.781 E.01191
G1 X77.19 Y118.35 E.01695
G1 X76.975 Y117.87 E.01654
G1 X73.57 Y114.465 E.15158
G1 X73.57 Y115 E.01685
G1 X79 Y120.43 E.24169
G1 X78.465 Y120.43 E.01685
G1 X73.57 Y115.535 E.21787
G1 X73.57 Y116.071 E.01685
G1 X77.929 Y120.43 E.19404
G1 X77.394 Y120.43 E.01685
G1 X73.57 Y116.606 E.17021
G1 X73.57 Y117.141 E.01685
G1 X76.859 Y120.43 E.14639
G1 X76.324 Y120.43 E.01685
